X:1
T:Surrexit Christus
T:André Vierendeels
T:Source  Catechismus---Würzburg---J.Volmari---1625. Editor : André Vierendeels (16/09/17).
T:Melody by Georg Vogler (1630) (Soprano voice)
T:Notes : Original clef : C1, other voices supplied editorially Original note values have been halved
T:Surrexit Christus I
T:©
T:©
C:André Vierendeels
Z:©
%%score [ 1 2 3 ]
L:1/8
Q:1/4=100
M:2/2
K:F
V:1 treble nm="Soprano" snm="S"
V:2 treble-8 nm="Tenor" snm="T"
V:3 bass nm="Bass" snm="B"
V:1
"^1)" F4 F2 F2 | D2 D2 D2 D2 | C3 D E2 F2 | F2 E2 G2 A2 | G2 F4 E2 | G4 F4 | E3 D C2 D2- | %7
w: Sur- re- xit|Chri- stus ho- di-|e, Al- le- lu-|ia, Al- le- lu-|ia, Al- le-|lu- ia,|Al- le- lu- *|
w: Sur- re- xit|Chri- stus ho- di-|e, * * *|||||
 DC C4 =B,2 | C8 :: z2 c2 c2 c2 | c3 c A3 G | F3 G A2 B2 | F2 G3 F F2- | F2 E2 F4 :| %14
w: |ia.|Hu- ma- no|pro so- la- mi-|ne, _ _ Al|le- lu- * *|* * ia.|
w: ||Al- le- lu-|ia, Al- le- lu-|ia, * * *|||
V:2
"^2)""^1)" c4 A2 d2 | A2 A2 B3 F | E2 G2 c3 A | B2 G2 d3 d | d2 A4 G2 | c4 A2 B2 | G4 A2 A2 | %7
w: Sur- re- xit|Chri- stus ho- di-|e, Al- le- lu-|ia, Al- le- lu-|ia, Al- le-|lu- * *|* ia, Al-|
w: Al- le- lu-|ia, Al- le- lu-|ia. * * *|||||
 Bc A2 d4 | c8 :: c4 F2 A2 | G4 F4 | A4 c2 d2 | c4 B4 | G4 A4 :| %14
w: le- * * lu-|ia.|Hu- ma- no|pro so-|la- mi- ne,|Al- le-|lu- ia.|
w: ||Hu- ma- no|pro so-|la- mi- ne,|||
V:3
"^3)""^1)""^4)" F,4 D,2 B,,2 | D,2 F,2 G,2 B,,2 | C,2 E,2 C,2 D,2 | B,,3 C, G,2 ^F,2 | %4
w: Sur- re- xit|Chri- stus ho- di-|e, Al- le lu-|ia, Al- le- lu-|
w: Al le- lu-|ia. Sur- re- xit|Chri- * * *||
 G,2 D,4 E,2 | E,4 D,4 | C,4 F,2 D,2 | G,E, F,2 G,2 G,,2 | C,8 :: F,4 A,2 F,2 | C,2 E,2 F,2 A,2 | %11
w: ia, Al- le-|lu- *|* ia, Al-|le- * * * lu-|ia.|Hu- ma- no|pro so- la- *|
w: |||||stus ho- di-|e, Al- le- *|
 F,2 D,2 F,2 B,,2 | A,,2 C,2 D,2 F,2 | C,4 F,,4 :| %14
w: * * * mi-|ne, Al- le- *|lu- ia.|
w: * * * lu-|ia, * * *||

